www/assets/icons/more_time.svg

<svg xmlns="http://www.w3.org/2000/svg" width="24" height="24" viewBox="0 0 24 24" fill='currentColor'><path d="M9.5 8v6l4.7 2.9.8-1.2-4-2.4V8z"/><path d="M17.42 12a6.957 6.957 0 0 1-6.92 8c-3.9 0-7-3.1-7-7s3.1-7 7-7c.7 0 1.37.1 2 .29V4.23c-.64-.15-1.31-.23-2-.23-5 0-9 4-9 9s4 9 9 9a8.963 8.963 0 0 0 8.94-10z"/><path d="M19.5 5V2h-2v3h-3v2h3v3h2V7h3V5z"/></svg>

<svg width="24" height="24" viewBox="0 0 24 24" xmlns="http://www.w3.org/2000/svg" fill='currentColor'><path d="M9.5 8V14L14.2 16.9L15 15.7L11 13.3V8H9.5Z"/><path d="M17.42 12C17.47 12.33 17.5 12.66 17.5 13C17.5 16.9 14.4 20 10.5 20C6.6 20 3.5 16.9 3.5 13C3.5 9.1 6.6 6 10.5 6C11.2 6 11.87 6.1 12.5 6.29V4.23C11.86 4.08 11.19 4 10.5 4C5.5 4 1.5 8 1.5 13C1.5 18 5.5 22 10.5 22C15.5 22 19.5 18 19.5 13C19.5 12.66 19.48 12.33 19.44 12H17.42Z"/><path d="M19.5 5V2H17.5V5H14.5V7H17.5V10H19.5V7H22.5V5H19.5Z"/></svg>
